icon/lg/browsersync.svg

<?xml version="1.0" encoding="UTF-8" standalone="no"?>
<svg viewBox="0 0 256 387" version="1.1" xmlns="http://www.w3.org/2000/svg" xmlns:xlink="http://www.w3.org/1999/xlink" preserveAspectRatio="xMidYMid" height="1em" width="1em">
  <g>
    <path d="M146.437673,115.038455 L146.437673,382.030145 C146.437673,384.86671 149.274238,386.639563 151.756233,385.221281 L254.227147,329.553691 C255.290859,328.84455 256,327.780838 256,326.362555 L256,174.960893 C256,173.542611 255.290859,172.478899 254.227147,171.769757 L152.110803,111.84732 C149.628809,110.429037 146.437673,112.20189 146.437673,115.038455 Z M131.900277,383.093857 L131.900277,3.70327535 C131.900277,1.22128089 129.418283,-0.551572297 126.936288,0.157568977 L2.48199446,46.2517518 C1.06371191,46.9608931 7.10542736e-15,48.024605 7.10542736e-15,49.7974582 L7.10542736e-15,338.417957 C7.10542736e-15,339.836239 1.06371191,341.254522 2.48199446,341.963663 L126.936288,386.639563 C129.418283,387.348705 131.900277,385.575852 131.900277,383.093857 Z" fill="#F14646"/>
  </g>
</svg>

<svg width="256" height="387" xmlns="http://www.w3.org/2000/svg" preserveAspectRatio="xMidYMid"><path d="M146.438 115.038V382.03c0 2.837 2.836 4.61 5.318 3.191l102.471-55.667c1.064-.71 1.773-1.773 1.773-3.191V174.96c0-1.418-.71-2.482-1.773-3.191l-102.116-59.923c-2.482-1.418-5.673.355-5.673 3.191ZM131.9 383.094V3.704c0-2.483-2.482-4.256-4.964-3.546L2.482 46.252C1.064 46.96 0 48.025 0 49.797v288.621c0 1.418 1.064 2.837 2.482 3.546l124.454 44.676c2.482.709 4.964-1.064 4.964-3.546Z" fill="#F14646"/></svg>
